X: 151
T: 152. Meinen Jesum la\ss ich nicht, weil
N: Derived from chor152.krn
C: Johann Sebastian Bach
%%abc-version 2.0
%%abcx-abcm2ps-target-version 5.9.1 (29 Sep 2008)
%%abc-creator hum2abc beta
%%abcx-conversion-date 2019/03/11 17:28:18
%%abc-edited-by Craig Stuart Sapp
%%humdrum-veritas 3714098310
%%humdrum-veritas-data 1322169859
%%
%%barnumbers 0
L: 1/8
M: C
%%staves [1 2 3 4]
V: 1 clef=treble
V: 2 clef=treble
V: 3 clef=treble-8
V: 4 clef=bass
K: D
[V:1] A2A2B2B2 | 
[V:2] FGA2A2G2 | 
[V:3] d2d2d2e2 | 
[V:4] D,E, F,D, G,F, G,E, | 
[V:1] c2c2!fermata!d4 | 
[V:2] GE AG!fermata!F4 | 
[V:3] e2A2!fermata!A4 | 
[V:4] A,G, F,E,!fermata!D,4 | 
[V:1] e2e2d2d2 | 
[V:2] A2A2A2^GF | 
[V:3] c2c2c2B2 | 
[V:4] A,,B,, C,A,, B,,C, D,B,, | 
[V:1] c2Bc/d/B4 | 
[V:2] E2E2F2E2 | 
[V:3] BAA2A2^G2 | 
[V:4] C,D, E,C, D,B,,E,2 | 
[V:1] !fermata!A4A2A2 | 
[V:2] !fermata!E4FGA2 | 
[V:3] !fermata!c4d2d2 | 
[V:4] !fermata!A,,4D,E, F,D, | 
[V:1] B2B2A2G2 | 
[V:2] A2G2GF FE | 
[V:3] d2e2ec dA | 
[V:4] G,F, E,D, C,A,, B,,C, | 
[V:1] !fermata!F4A2A2 | 
[V:2] !fermata!D4C2F2- | 
[V:3] !fermata!A4A2B2 | 
[V:4] !fermata!D,4F,E, ^D,B,, | 
[V:1] G2G2F2EF/G/ | 
[V:2] FE/D/ EE EDD2 | 
[V:3] B2A2A2B2 | 
[V:4] E,=D, C,A,, D,F, G,E, | 
[V:1] E4!fermata!D4 | 
[V:2] D2C2!fermata!A,4 | 
[V:3] A2G2!fermata!F4 | 
[V:4] A,G, A,A,,!fermata!D,4 | 
[V:1] d2d2c2c2 | 
[V:2] F2F2F2E2 | 
[V:3] B2B2A2A2 | 
[V:4] B,,C, D,E, F,^G, A,F, | 
[V:1] B2B2!fermata!A4 | 
[V:2] F2E2!fermata!E4 | 
[V:3] A2^G2!fermata!c4 | 
[V:4] ^D,B,,E,2!fermata!A,,4 | 
[V:1] A2A2G2F2 | 
[V:2] F2F2FE ED | 
[V:3] c2d2dA AB | 
[V:4] F,E, D,C, B,,C, D,B,, | 
[V:1] E2E2!fermata!D4 |]  
[V:2] DC/B,/C2!fermata!A,4 |]  
[V:3] BG EA!fermata!F4 |]  
[V:4] G,,E,,A,,2!fermata!D,4 |]  



